public/favicon.svg

<svg viewBox="0 0 48 48" xmlns="http://www.w3.org/2000/svg"><path d="m31 19.8-7 4.2-20-12c2.78-1.52.42-.22 8-4.38z" fill="#a87e6b"/><path d="m37 16.2-6 3.6-19-12.18 6.28-3.46z" fill="#f6ccaf"/><path d="m44 12c-4.22 2.54 5.31-3.21-7 4.2l-18.75-12 5.75-3.2z" fill="#a87e6b"/><path d="m31 19.8-5 3-12.3-7.38a3.82 3.82 0 0 1 .12-6.62z" fill="#be927c"/><path d="m37 16.2-6 3.6-17.18-11c5.53-3 1-.59 6.28-3.45z" fill="#ffdec7"/><path d="m44 12-7 4.2-16.9-10.85 5.9-3.25c18.7 10.28 15.62 8.58 18 9.9z" fill="#be927c"/><path d="m44 12v23l-20 12v-23z" fill="#a87e6b"/><path d="m44 12v21l-11.94 7.17a4 4 0 0 1 -6.06-3.43v-13.94z" fill="#be927c"/><path d="m37 16.2v6.8l-6 3v-6.2z" fill="#f6ccaf"/><path d="m37 16.2v5.8l-1.35.67a3.21 3.21 0 0 1 -4.65-2.87z" fill="#ffdec7"/><path d="m37 33v6.2l-6 3.6v-5.8z" fill="#f6ccaf"/><path d="m31 37.33v5.47l-1 .6v-5.4z" fill="#a87e6b"/><path d="m37 33v4.2l-2.74 1.64a2.15 2.15 0 0 1 -3.26-1.84z" fill="#ffdec7"/><path d="m24 24v23l-20-12v-23z" fill="#a07765"/><path d="m14 30v6l6 4v-6z" fill="#c6c3d8"/><path d="m13.82 8.8a3.5 3.5 0 0 0 -.73.53c.91.61-1.72-1.13 16.91 11.07v5.6l1-.5v-5.7z" fill="#a87e6b"/></svg>

<svg id="Box_Package" data-name="Box Package" xmlns="http://www.w3.org/2000/svg" viewBox="0 0 48 48"><defs><style>.cls-1{fill:#a87e6b;}.cls-2{fill:#f6ccaf;}.cls-3{fill:#be927c;}.cls-4{fill:#ffdec7;}.cls-5{fill:#a07765;}.cls-6{fill:#c6c3d8;}</style></defs><title>Box Package </title><path class="cls-1" d="M31,19.8,24,24,4,12c2.78-1.52.42-.22,8-4.38Z"/><path class="cls-2" d="M37,16.2l-6,3.6L12,7.62l6.28-3.46Z"/><path class="cls-1" d="M44,12c-4.22,2.54,5.31-3.21-7,4.2l-18.75-12L24,1Z"/><path class="cls-3" d="M31,19.8l-5,3L13.7,15.42a3.82,3.82,0,0,1,.12-6.62Z"/><path class="cls-4" d="M37,16.2l-6,3.6L13.82,8.8c5.53-3,1-.59,6.28-3.45Z"/><path class="cls-3" d="M44,12l-7,4.2L20.1,5.35,26,2.1C44.7,12.38,41.62,10.68,44,12Z"/><path class="cls-1" d="M44,12V35L24,47V24Z"/><path class="cls-3" d="M44,12V33L32.06,40.17A4,4,0,0,1,26,36.74V22.8Z"/><path class="cls-2" d="M37,16.2V23l-6,3V19.8Z"/><path class="cls-4" d="M37,16.2V22l-1.35.67A3.21,3.21,0,0,1,31,19.8Z"/><polygon class="cls-2" points="37 33 37 39.2 31 42.8 31 37 37 33"/><polygon class="cls-1" points="31 37.33 31 42.8 30 43.4 30 38 31 37.33"/><path class="cls-4" d="M37,33v4.2l-2.74,1.64A2.15,2.15,0,0,1,31,37Z"/><polygon class="cls-5" points="24 24 24 47 4 35 4 12 24 24"/><polygon class="cls-6" points="14 30 14 36 20 40 20 34 14 30"/><path class="cls-1" d="M13.82,8.8a3.5,3.5,0,0,0-.73.53C14,9.94,11.37,8.2,30,20.4V26l1-.5V19.8Z"/></svg>
